public/images/icons/ico-laurel.svg

<?xml version="1.0" encoding="utf-8"?>
<!-- Generator: Adobe Illustrator 17.0.0, SVG Export Plug-In . SVG Version: 6.00 Build 0)  -->
<!DOCTYPE svg PUBLIC "-//W3C//DTD SVG 1.1//EN" "http://www.w3.org/Graphics/SVG/1.1/DTD/svg11.dtd">
<svg version="1.1" id="Layer_2" xmlns="http://www.w3.org/2000/svg" xmlns:xlink="http://www.w3.org/1999/xlink" x="0px" y="0px"
	 width="85px" height="80.788px" viewBox="0 0 85 80.788" enable-background="new 0 0 85 80.788" xml:space="preserve">
<g>
	<g>
		<path fill="#A6ABA9" d="M27.52,8.495c0.479-2.918,3.942-5.725,7.057-5.573C33.835,6.274,30.22,8.321,27.52,8.495z"/>
		<path fill="#A6ABA9" d="M21.522,12.649c2.796-2.206,8.284-2.293,10.897-0.29C29.719,14.188,23.881,14.361,21.522,12.649z"/>
		<path fill="#A6ABA9" d="M16.349,18.104c2.342-2.683,7.72-3.782,10.659-2.295C24.69,18.104,18.985,19.353,16.349,18.104z"/>
		<path fill="#A6ABA9" d="M19.669,20.374c-1.439,3.255-6.251,5.899-9.498,5.351C11.702,22.845,16.02,19.946,19.669,20.374z"/>
		<path fill="#A6ABA9" d="M10.434,14.765c-2.238,2.769-2.39,8.253-0.414,10.889C11.878,22.977,12.119,17.144,10.434,14.765z"/>
		<path fill="#A6ABA9" d="M17.412,7.676c-2.336,2.477-2.881,7.696-1.191,10.354C18.191,15.613,18.848,10.067,17.412,7.676z"/>
		<path fill="#A6ABA9" d="M26.238,2.963c-3.145,1.547-5.552,6.384-4.881,9.554C24.129,10.897,26.761,5.787,26.238,2.963z"/>
		<path fill="#A6ABA9" d="M15.919,26.761c-0.423,3.823-4.516,8.111-8.039,8.603C8.52,31.902,12.143,27.26,15.919,26.761z"/>
		<path fill="#A6ABA9" d="M4.664,24.279c-1.365,3.482,0.221,9.019,3.033,11.033C8.712,32.043,7.105,26.126,4.664,24.279z"/>
		<path fill="#A6ABA9" d="M13.125,34.502c0.803,4.044-1.998,9.753-5.442,11.394C7.218,42.148,9.257,36.772,13.125,34.502z"/>
		<path fill="#A6ABA9" d="M13.164,43.213c1.831,3.859,0.463,10.306-2.582,12.827C9.165,52.392,10.259,45.818,13.164,43.213z"/>
		<path fill="#A6ABA9" d="M14.682,51.939c2.786,3.171,3.234,9.665,1.026,12.883C13.373,61.741,12.491,56.256,14.682,51.939z"/>
		<path fill="#A6ABA9" d="M18.554,60.911c3.305,1.996,5.485,7.53,4.448,10.946C20.116,69.812,17.936,65.236,18.554,60.911z"/>
		<path fill="#A6ABA9" d="M32.227,70.98c3.859,0.4,8.211,4.5,8.731,8.047C37.461,78.406,33.028,74.835,32.227,70.98z"/>
		<path fill="#A6ABA9" d="M25.446,67.571c3.262,1.286,6.055,5.911,5.646,9.125C28.197,75.306,25.417,71.57,25.446,67.571z"/>
		<path fill="#A6ABA9" d="M1.963,35.068c-0.688,3.902,2.118,9.325,5.46,10.829C7.793,42.29,4.886,36.477,1.963,35.068z"/>
		<path fill="#A6ABA9" d="M0.308,46.529c0.759,4.495,5.895,9.292,10.096,9.633C9.413,52.109,4.019,46.931,0.308,46.529z"/>
		<path fill="#A6ABA9" d="M10.763,69.873c2.751,2.901,8.834,3.879,12.058,2.069C20.115,69.48,13.657,68.352,10.763,69.873z"/>
		<path fill="#A6ABA9" d="M29.195,82.816c3.77,1.335,9.632-0.556,11.683-3.631C37.35,78.22,31.082,80.146,29.195,82.816z"/>
		<path fill="#A6ABA9" d="M3.683,58.77c1.882,3.93,7.861,6.98,11.811,6.189C13.514,61.495,7.195,58.16,3.683,58.77z"/>
		<path fill="#A6ABA9" d="M19.025,77.753c3.314,2.115,9.353,1.604,12.001-0.885C27.861,75.159,21.428,75.612,19.025,77.753z"/>
	</g>
	<g>
		<path fill="#A6ABA9" d="M57.479,8.495c-0.478-2.918-3.941-5.725-7.056-5.573C51.215,6.274,54.78,8.321,57.479,8.495z"/>
		<path fill="#A6ABA9" d="M63.478,12.649c-2.797-2.206-8.285-2.293-10.899-0.29C55.282,14.188,61.119,14.361,63.478,12.649z"/>
		<path fill="#A6ABA9" d="M68.651,18.104c-2.342-2.683-7.72-3.782-10.658-2.295C60.31,18.104,66.015,19.353,68.651,18.104z"/>
		<path fill="#A6ABA9" d="M65.332,20.374c1.439,3.255,6.25,5.899,9.497,5.351C73.298,22.845,68.979,19.946,65.332,20.374z"/>
		<path fill="#A6ABA9" d="M74.566,14.765c2.238,2.769,2.389,8.253,0.413,10.889C73.121,22.977,72.881,17.144,74.566,14.765z"/>
		<path fill="#A6ABA9" d="M67.587,7.676c2.335,2.477,2.881,7.696,1.193,10.354C66.809,15.613,66.152,10.067,67.587,7.676z"/>
		<path fill="#A6ABA9" d="M58.761,2.963c3.145,1.547,5.552,6.384,4.883,9.554C60.871,10.897,58.24,5.787,58.761,2.963z"/>
		<path fill="#A6ABA9" d="M69.082,26.761c0.421,3.823,4.514,8.111,8.037,8.603C76.481,31.902,72.857,27.26,69.082,26.761z"/>
		<path fill="#A6ABA9" d="M80.335,24.279c1.365,3.482-0.223,9.019-3.033,11.033C76.288,32.043,77.894,26.126,80.335,24.279z"/>
		<path fill="#A6ABA9" d="M71.876,34.502c-0.804,4.044,1.997,9.753,5.441,11.394C77.782,42.148,75.742,36.772,71.876,34.502z"/>
		<path fill="#A6ABA9" d="M71.837,43.213c-1.831,3.859-0.464,10.306,2.581,12.827C75.835,52.392,74.741,45.818,71.837,43.213z"/>
		<path fill="#A6ABA9" d="M70.318,51.939c-2.787,3.171-3.234,9.665-1.026,12.883C71.627,61.741,72.508,56.256,70.318,51.939z"/>
		<path fill="#A6ABA9" d="M66.444,60.911c-3.303,1.996-5.483,7.53-4.449,10.946C64.883,69.812,67.064,65.236,66.444,60.911z"/>
		<path fill="#A6ABA9" d="M52.772,70.98c-3.858,0.4-8.21,4.5-8.73,8.047C47.539,78.406,51.972,74.835,52.772,70.98z"/>
		<path fill="#A6ABA9" d="M59.554,67.571c-3.263,1.286-6.057,5.911-5.647,9.125C56.803,75.306,59.583,71.57,59.554,67.571z"/>
		<path fill="#A6ABA9" d="M83.036,35.068c0.688,3.902-2.117,9.325-5.461,10.829C77.206,42.29,80.112,36.477,83.036,35.068z"/>
		<path fill="#A6ABA9" d="M84.692,46.529c-0.76,4.495-5.895,9.292-10.096,9.633C75.586,52.109,80.982,46.931,84.692,46.529z"/>
		<path fill="#A6ABA9" d="M74.236,69.873c-2.75,2.901-8.833,3.879-12.057,2.069C64.884,69.48,71.342,68.352,74.236,69.873z"/>
		<path fill="#A6ABA9" d="M55.805,82.816c-3.77,1.335-9.632-0.556-11.684-3.631C47.65,78.22,53.917,80.146,55.805,82.816z"/>
		<path fill="#A6ABA9" d="M81.317,58.77c-1.882,3.93-7.861,6.98-11.81,6.189C71.486,61.495,77.806,58.16,81.317,58.77z"/>
		<path fill="#A6ABA9" d="M65.974,77.753c-3.315,2.115-9.352,1.604-12.001-0.885C57.139,75.159,63.572,75.612,65.974,77.753z"/>
	</g>
</g>
</svg>

<svg xmlns="http://www.w3.org/2000/svg" xml:space="preserve" viewBox="0 0 85 80.79"><g fill="#A6ABA9"><path d="M27.52 8.5c.48-2.92 3.94-5.73 7.06-5.58-.74 3.35-4.36 5.4-7.06 5.57zM21.52 12.65c2.8-2.2 8.29-2.3 10.9-.3-2.7 1.84-8.54 2.01-10.9.3zM16.35 18.1c2.34-2.68 7.72-3.78 10.66-2.3-2.32 2.3-8.03 3.55-10.66 2.3zM19.67 20.37c-1.44 3.26-6.25 5.9-9.5 5.35 1.53-2.88 5.85-5.77 9.5-5.35z"/><path d="M10.43 14.77c-2.23 2.76-2.39 8.25-.41 10.88 1.86-2.67 2.1-8.5.41-10.88zM17.41 7.68c-2.33 2.47-2.88 7.7-1.19 10.35 1.97-2.42 2.63-7.96 1.2-10.35zM26.24 2.96c-3.15 1.55-5.55 6.39-4.88 9.56 2.77-1.62 5.4-6.73 4.88-9.56zM15.92 26.76c-.42 3.82-4.52 8.11-8.04 8.6.64-3.46 4.26-8.1 8.04-8.6z"/><path d="M4.66 24.28C3.3 27.76 4.88 33.3 7.7 35.3c1.01-3.27-.6-9.18-3.04-11.03zM13.13 34.5c.8 4.05-2 9.76-5.45 11.4-.46-3.75 1.58-9.13 5.45-11.4zM13.16 43.21c1.83 3.86.47 10.3-2.58 12.83-1.42-3.65-.32-10.22 2.58-12.83zM14.68 51.94c2.79 3.17 3.24 9.66 1.03 12.88-2.34-3.08-3.22-8.56-1.03-12.88zM18.55 60.91c3.3 2 5.49 7.53 4.45 10.95-2.88-2.05-5.06-6.62-4.45-10.95zM32.23 70.98c3.86.4 8.2 4.5 8.73 8.05-3.5-.62-7.93-4.2-8.73-8.05zM25.45 67.57c3.26 1.29 6.05 5.91 5.64 9.13a10.65 10.65 0 0 1-5.64-9.13z"/><path d="M1.96 35.07c-.68 3.9 2.12 9.32 5.46 10.83.37-3.61-2.53-9.42-5.46-10.83zM.3 46.53c.77 4.5 5.9 9.3 10.1 9.63-.99-4.05-6.38-9.23-10.1-9.63zM10.76 69.87c2.75 2.9 8.84 3.88 12.06 2.07-2.7-2.46-9.16-3.59-12.06-2.07zM29.2 82.82c3.77 1.33 9.63-.56 11.68-3.63-3.53-.97-9.8.96-11.69 3.63zM3.68 58.77c1.88 3.93 7.86 6.98 11.81 6.19-1.98-3.46-8.3-6.8-11.8-6.19zM19.02 77.75c3.32 2.12 9.36 1.6 12-.88-3.16-1.71-9.6-1.26-12 .88zM57.48 8.5c-.48-2.92-3.94-5.73-7.06-5.58.8 3.35 4.36 5.4 7.06 5.57zM63.48 12.65c-2.8-2.2-8.29-2.3-10.9-.3 2.7 1.84 8.54 2.01 10.9.3zM68.65 18.1c-2.34-2.68-7.72-3.78-10.66-2.3 2.32 2.3 8.02 3.55 10.66 2.3zM65.33 20.37c1.44 3.26 6.25 5.9 9.5 5.35-1.53-2.88-5.85-5.77-9.5-5.35z"/><path d="M74.57 14.77c2.23 2.76 2.39 8.25.4 10.88-1.85-2.67-2.09-8.5-.4-10.88zM67.59 7.68c2.33 2.47 2.88 7.7 1.19 10.35-1.97-2.42-2.63-7.96-1.2-10.35zM58.76 2.96c3.15 1.55 5.55 6.39 4.88 9.56-2.77-1.62-5.4-6.73-4.88-9.56zM69.08 26.76c.42 3.82 4.52 8.11 8.04 8.6-.64-3.46-4.26-8.1-8.04-8.6z"/><path d="M80.33 24.28c1.37 3.48-.22 9.02-3.03 11.03-1.01-3.27.6-9.18 3.03-11.03zM71.88 34.5c-.8 4.05 2 9.76 5.44 11.4.46-3.75-1.58-9.13-5.44-11.4zM71.84 43.21c-1.83 3.86-.47 10.3 2.58 12.83 1.41-3.65.32-10.22-2.58-12.83zM70.32 51.94c-2.79 3.17-3.24 9.66-1.03 12.88 2.34-3.08 3.22-8.56 1.03-12.88zM66.44 60.91c-3.3 2-5.48 7.53-4.44 10.95 2.88-2.05 5.06-6.62 4.44-10.95zM52.77 70.98c-3.86.4-8.2 4.5-8.73 8.05 3.5-.62 7.93-4.2 8.73-8.05zM59.55 67.57c-3.26 1.29-6.05 5.91-5.64 9.13a10.65 10.65 0 0 0 5.64-9.13z"/><path d="M83.04 35.07c.68 3.9-2.12 9.32-5.47 10.83-.36-3.61 2.54-9.42 5.47-10.83zM84.7 46.53c-.77 4.5-5.9 9.3-10.1 9.63.99-4.05 6.38-9.23 10.1-9.63zM74.24 69.87c-2.75 2.9-8.84 3.88-12.06 2.07 2.7-2.46 9.16-3.59 12.06-2.07zM55.8 82.82c-3.76 1.33-9.63-.56-11.68-3.63 3.53-.97 9.8.96 11.69 3.63zM81.32 58.77c-1.89 3.93-7.86 6.98-11.81 6.19 1.98-3.46 8.3-6.8 11.8-6.19zM65.97 77.75c-3.31 2.12-9.35 1.6-12-.88 3.17-1.71 9.6-1.26 12 .88z"/></g></svg>
